frontend/landing/src/assets/features/timers.svg

<svg xmlns="http://www.w3.org/2000/svg" fill="none" viewBox="0 0 24 24"><path stroke="currentColor" stroke-linecap="round" stroke-linejoin="round" stroke-width="2" d="M12 5c-4.4183 0-8 3.5817-8 8s3.5817 8 8 8 8-3.5817 8-8-3.5817-8-8-8Zm0 0V2m0 8v3h3M10 2h2m0 0h2"/></svg>

<svg width="24" height="24" viewBox="0 0 24 24" fill="none" xmlns="http://www.w3.org/2000/svg">
  <path d="M12 5C7.58172 5 4 8.58172 4 13C4 17.4183 7.58172 21 12 21C16.4183 21 20 17.4183 20 13C20 8.58172 16.4183 5 12 5ZM12 5V2M12 10V13H15M10 2H12M12 2H14" stroke="#B0ADFF" stroke-width="2" stroke-linecap="round" stroke-linejoin="round"/>
</svg>
